!!!COM: Stravinsky, Igor (Fyodorovich)
!!!OTL: Three Pieces for String Quartet
!!!OMV: First Movement
!!!example: 366
!!!work: Str-8
**kern	**dynam	**kern	**kern	**kern	**dynam	**kern	**dynam
*part5	*part5	*part4	*part3	*part2	*part2	*part1	*part1
*staff5	*	*staff4	*staff3	*staff2	*	*staff1	*
*I"Violoncello	*	*I"Viola	*I"Viola	*I"Violin II	*	*I"Violin I	*
*I'Vc.	*	*I'Vla.	*I'Vla.	*I'Vln. II	*	*I'Vln. I	*
*clefF4	*	*clefC3	*clefC3	*clefG2	*	*clefG2	*
*k[]	*	*k[]	*k[]	*k[]	*	*k[]	*
*C:	*	*C:	*C:	*C:	*	*C:	*
*M3/4	*	*M3/4	*M3/4	*M3/4	*	*M3/4	*
*MM121	*	*MM121	*MM121	*MM121	*	*MM121	*
=1	=1	=1	=1	=1	=1	=1	=1
2.r	.	2.r	[2.C#X [2.d	2.r	.	2.r	.
=2	=2	=2	=2	=2	=2	=2	=2
*M2/4	*	*M2/4	*M2/4	*M2/4	*	*M2/4	*
2r	.	2r	2C#_ 2d_	2r	.	2r	.
=3	=3	=3	=3	=3	=3	=3	=3
2r	.	2r	2C#_ 2d_	2r	.	2r	.
=4	=4	=4	=4	=4	=4	=4	=4
*M3/4	*	*M3/4	*M3/4	*M3/4	*	*M3/4	*
!LO:TX:a:t=pizz.	!	!	!	!LO:TX:a:t=pizz.	!	!	!
8E-XL	f	4r	16C#KL] 16d_	4d	.	(8gL	.
.	.	.	8.dJ_	.	.	.	.
8CCJ 8D-X	.	.	.	.	.	8aJ)	.
4D-	p	4r	2d_	4r	.	4b	.
!	!	!LO:TX:a:t=pizz.	!	!	!	!	!
8E-L	f	4d	.	4r	.	8ccL	.
8D-J	.	.	.	.	.	8aJ	.
=5	=5	=5	=5	=5	=5	=5	=5
*M2/4	*	*M2/4	*M2/4	*M2/4	*	*M2/4	*
8E-XL	.	4d	2d_	2r	.	(8bL	.
8CCJ 8D-X	.	.	.	.	.	8ccJ)	.
4D-	p	4r	.	.	.	8bL	.
.	.	.	.	.	.	(16a'L	.
.	.	.	.	.	.	16g'JJ	.
=6	=6	=6	=6	=6	=6	=6	=6
8E-XL	f	4d	2d_	2r	.	8a)	.
8CCJ 8D-X	.	.	.	.	.	4b	.
4D-	p	4r	.	.	.	.	.
.	.	.	.	.	.	8g	.
=7	=7	=7	=7	=7	=7	=7	=7
*M3/4	*	*M3/4	*M3/4	*M3/4	*	*M3/4	*
8E-XL	.	4d	2.d_	4r	.	(4a^	>
8CCJ 8D-X	.	.	.	.	.	.	.
4D-	.	4r	.	8f#X`L	ff	8g)	]
.	.	.	.	8e`J	.	8r	.
8E-L	.	4d	.	8d#X`L	.	(4a^	>
8D-J	.	.	.	8c#X`J	.	.	.
=8	=8	=8	=8	=8	=8	=8	=8
*M2/4	*	*M2/4	*M2/4	*M2/4	*	*M2/4	*
8E-XL	.	4d	2d_	2r	.	8g)	]
8CCJ 8D-X	.	.	.	.	.	8r	.
4D-	.	4r	.	.	.	8aL	.
.	.	.	.	.	.	(16g'L	.
.	.	.	.	.	.	16a'JJ)	.
=9	=9	=9	=9	=9	=9	=9	=9
8E-XL	.	4d	2d_	2r	.	(8b'L	.
8CCJ 8D-X	.	.	.	.	.	8cc'J)	.
4D-	.	4r	.	.	.	(8bL	.
.	.	.	.	.	.	[8aJ	.
=10	=10	=10	=10	=10	=10	=10	=10
*M3/4	*	*M3/4	*M3/4	*M3/4	*	*M3/4	*
8E-XL	.	4d	2.d_	2.r	.	8aL])	.
8CCJ 8D-X	.	.	.	.	.	8gJ	.
4D-	.	4r	.	.	.	(4a^	.
8E-L	.	4d	.	.	.	8g)	.
8D-J	.	.	.	.	.	8r	.
=11	=11	=11	=11	=11	=11	=11	=11
*M2/4	*	*M2/4	*M2/4	*M2/4	*	*M2/4	*
8E-XL	.	4d	2d_	4r	.	(8ccL	.
8CCJ 8D-X	.	.	.	.	.	8bJ)	.
4D-	.	4r	.	(8f#XL	.	8aL	.
.	.	.	.	8eJ	.	(16g'L	.
.	.	.	.	.	.	16aJJ)	.
=12	=12	=12	=12	=12	=12	=12	=12
8E-XL	.	4d	2d_	8d#XL	.	(8bL	.
8CCJ 8D-X	.	.	.	8c#XJ)	.	8ccJ)	.
4D-	.	4r	.	(8f#XL	.	(8bL	.
.	.	.	.	8eJ	.	[8aJ	.
=13	=13	=13	=13	=13	=13	=13	=13
*M3/4	*	*M3/4	*M3/4	*M3/4	*	*M3/4	*
8E-XL	.	4d	2.d_	8d#XL	.	8aL])	.
8CCJ 8D-X	.	.	.	8c#XJ)	.	8gJ	.
4D-	.	4r	.	4r	.	4a^	.
8E-L	.	4d	.	4r	.	(8gL	.
8D-J	.	.	.	.	.	8aJ)	.
=14	=14	=14	=14	=14	=14	=14	=14
*M2/4	*	*M2/4	*M2/4	*M2/4	*	*M2/4	*
8E-XL	.	4d	2d_	2r	.	4b	.
8CCJ 8D-X	.	.	.	.	.	.	.
4D-	.	4r	.	.	.	8ccL	.
.	.	.	.	.	.	8aJ	.
=15	=15	=15	=15	=15	=15	=15	=15
8E-XL	.	4d	2d_	2r	.	(8bL	.
8CCJ 8D-X	.	.	.	.	.	8ccJ)	.
4D-	.	4r	.	.	.	8bL	.
.	.	.	.	.	.	(16a'L	.
.	.	.	.	.	.	16g'JJ	.
=16	=16	=16	=16	=16	=16	=16	=16
*M3/4	*	*M3/4	*M3/4	*M3/4	*	*M3/4	*
8E-XL	.	4d	2.d]	4r	.	8a')	.
8CCJ 8D-X	.	.	.	.	.	4b	.
4D-	.	4r	.	4r	.	.	.
.	.	.	.	.	.	8g	.
8E-L	.	4d	.	(8f#XL	.	[4a^	.
8D-J	.	.	.	8eJ)	.	.	.
=	=	=	=	=	=	=	=
*-	*-	*-	*-	*-	*-	*-	*-
!!!system-decoration: [(s1,s2,s3,s4,s5)]
!!!CDT: 1882/06/17-1971/04/06
!!!CBL: Lomonosov (Oranienbaum), Russia
!!!CDL: New York, United States
!!!CNT: Russian, French, American
!!!AGN: Instrumental; Chamber
!!!MCN:
!!!MDT: 1915/05/13
!!!MGN: Flonzaley Quartet
!!!MLC: Paris, France
!!!MPD: 1915
!!!MPN:
!!!ODT: 1914 (rev. 1918)
!!!PDT: 1922
!!!excerpt-start-measure: 1
!!!excerpt-end-measure: 16
!!!excerpt-start-time: 0:00
!!!excerpt-end-time: 0:18
!!!EEV: 2020/01/25
!!!ONB: Converted from MusicXML on 2020/01/25
